X:124
T:RVW2/1/124 Three Jolly Sailor Boys
C:Transcribed by Simon Furey and Lewis Jones
F:http://www.vwml.org/record/RVW2/1/124
T:Children's Games, Weobley [1 of 3]
L:1/8
Q:1/4=90
M:2/4
I:linebreak $
K:D
"^(Editorialsuggestion) "A|ddAA|BBAA|"^(a)"ddef|d3A|ddAA|$BBAA|ddcd|d3A|
d2 d2 | dAFA | d2 d2 |$ dAFA | dd AA | BB AA | ddce | d3 ||$ A | dd AA | BB AA |"^(a) var." DDCE | d3 A | dd AA |$ BBAA | ddcd | d3 A | d2 d2 | dAFA | d2 d2 |$ dAFA | dd AA | BB AA | ddce | d3 |]

